X:1
T:Adelita
T:Adelita
T:Francisco Tarrega
T:Copyright © 
C:Francisco Tarrega
Z:Copyright ©
%%score ( 1 2 )
L:1/8
M:3/4
K:G
V:1 treble-8 nm="Classical Guitar" snm="Guit."
V:2 treble-8 
V:1
 (e'^d' b4 | =d'c' f4 | c'b ^d2 [Adg]2 |{fg} fe Be gb) | e'^d' b4 | =d'c' f4 | c'b ^d2 [Adg]2 | %7
 [GBe]4 E,2 :|[K:E] (g2 eb [ce]f | g2 eb [ce]f) | ([Beg]b e' d'{d'e'} d'c' |{c'd'} c'b af dB) | %12
 (G2 [Be]B [Ece]F | GB g d{ef} [^Ae]>A | B>[=A^c] [GB]2 [FAd]2 | [GBe]6)!D.C.! |] %16
V:2
 E,4 [eg]2 | A,4 [ce]2 | B,6 | E,6 | E,4 [eg]2 | A,4 [ce]2 | B,6 | x6 :|[K:E] E,2 [GB]2 A,2 | %9
 E,2 [GB]2 A,2 | E,4 [Fe]2 | [B,Ad]4 z2 | E,4 A,2 | E,4 =C2 | B,4 B,2 | E2 E,4 |] %16

